public/skilliconstwitter.svg

<svg width="41" height="40" viewBox="0 0 41 40" fill="none" xmlns="http://www.w3.org/2000/svg">
<g clip-path="url(#clip0_1852_129)">
<path d="M31.125 0H9.875C4.69733 0 0.5 4.19733 0.5 9.375V30.625C0.5 35.8027 4.69733 40 9.875 40H31.125C36.3027 40 40.5 35.8027 40.5 30.625V9.375C40.5 4.19733 36.3027 0 31.125 0Z" fill="white"/>
<path d="M9.875 0.5H31.125C36.0265 0.5 40 4.47347 40 9.375V30.625C40 35.5265 36.0265 39.5 31.125 39.5H9.875C4.97347 39.5 1 35.5265 1 30.625V9.375C1 4.47347 4.97347 0.5 9.875 0.5Z" fill="#1D9BF0" stroke="white"/>
<path d="M31.6831 14.283C31.7003 14.5309 31.7003 14.7789 31.7003 15.0292C31.7003 22.6537 25.8959 31.4472 15.2823 31.4472V31.4425C12.1469 31.447 9.07641 30.549 6.4375 28.8558C6.89344 28.9106 7.35156 28.938 7.81094 28.9391C10.4096 28.9411 12.9336 28.0695 14.9772 26.4642C13.7731 26.4414 12.6063 26.043 11.6398 25.3245C10.6732 24.6061 9.95539 23.6036 9.58656 22.4572C10.4511 22.6239 11.3423 22.5899 12.1916 22.3578C9.49969 21.8139 7.56297 19.4487 7.56297 16.7019V16.6287C8.36546 17.0757 9.26356 17.3234 10.1817 17.3509C7.64641 15.6564 6.86484 12.2834 8.39578 9.64624C9.84442 11.4289 11.6519 12.8869 13.7007 13.9255C15.7495 14.9641 17.9939 15.56 20.2881 15.6747C20.0594 14.6901 20.0932 13.6626 20.3861 12.6952C20.679 11.7277 21.2208 10.8541 21.9573 10.1617C24.2814 7.97702 27.9366 8.08906 30.1213 10.4119C31.4134 10.1567 32.6526 9.68302 33.7855 9.01109C33.3547 10.3471 32.4533 11.4812 31.2489 12.2023C32.3928 12.0676 33.5098 11.7614 34.5625 11.2941C33.7881 12.4537 32.8131 13.4658 31.6831 14.283Z" fill="white"/>
</g>
<defs>
<clipPath id="clip0_1852_129">
<rect width="40" height="40" fill="white" transform="translate(0.5)"/>
</clipPath>
</defs>
</svg>

<svg width="41" height="40" fill="none" xmlns="http://www.w3.org/2000/svg"><g clip-path="url(#a)"><path d="M31.125 0H9.875A9.375 9.375 0 0 0 .5 9.375v21.25A9.375 9.375 0 0 0 9.875 40h21.25a9.375 9.375 0 0 0 9.375-9.375V9.375A9.375 9.375 0 0 0 31.125 0z" fill="#fff"/><path d="M9.875.5h21.25A8.875 8.875 0 0 1 40 9.375v21.25a8.875 8.875 0 0 1-8.875 8.875H9.875A8.875 8.875 0 0 1 1 30.625V9.375A8.875 8.875 0 0 1 9.875.5z" fill="#1D9BF0" stroke="#fff"/><path d="M31.683 14.283c.017.248.017.496.017.746 0 7.625-5.804 16.418-16.418 16.418v-.005a16.335 16.335 0 0 1-8.845-2.586 11.587 11.587 0 0 0 8.54-2.392 5.777 5.777 0 0 1-5.39-4.007 5.751 5.751 0 0 0 2.605-.1 5.77 5.77 0 0 1-4.629-5.655v-.073c.802.447 1.7.694 2.619.722a5.778 5.778 0 0 1-1.786-7.705 16.378 16.378 0 0 0 11.892 6.029 5.774 5.774 0 0 1 1.67-5.513 5.777 5.777 0 0 1 8.163.25 11.582 11.582 0 0 0 3.665-1.4 5.79 5.79 0 0 1-2.537 3.19c1.144-.134 2.26-.44 3.314-.908a11.723 11.723 0 0 1-2.88 2.989z" fill="#fff"/></g><defs><clipPath id="a"><path fill="#fff" transform="translate(.5)" d="M0 0h40v40H0z"/></clipPath></defs></svg>
